X: 3384
T: JUDY BRALLAGHAN
%R: reel
B: James Kerr "Merry Melodies" v.3 p.42 #384
Z: 2016 John Chambers <jc:trillian.mit.edu>
N: The first strain is in D, and the "passing" G sharps should probably be natural.
M: 2/4
L: 1/16
K: A	% and D
uc2 |\
d2fd c2ec | B2Bc (BA)FG | ABAF EFAc | BABc BAFA |\
d2fd c2ec | B2Bc (BA)FG | ABAF EFAc | BABc A2 :|
|: E2 |\
ABcd e2(fg) | a2(af) ecAc | d2fd c2ec | B2Bc BAF2 |\
agaf ecAc | BABc BAFG | ABAF EFAc | BABc A2 :|

%%sep 1 1 500
%%sep 1 1 500

